storage/app/icons/phosphoricons/bold/dice-four-bold.svg

<svg xmlns="http://www.w3.org/2000/svg" fill="currentColor" viewBox="0 0 256 256"><path d="M192 28H64a36 36 0 0 0-36 36v128a36 36 0 0 0 36 36h128a36 36 0 0 0 36-36V64a36 36 0 0 0-36-36m12 164a12 12 0 0 1-12 12H64a12 12 0 0 1-12-12V64a12 12 0 0 1 12-12h128a12 12 0 0 1 12 12Zm-92-96a16 16 0 1 1-16-16 16 16 0 0 1 16 16m64 0a16 16 0 1 1-16-16 16 16 0 0 1 16 16m-64 64a16 16 0 1 1-16-16 16 16 0 0 1 16 16m64 0a16 16 0 1 1-16-16 16 16 0 0 1 16 16"/></svg>

<svg xmlns="http://www.w3.org/2000/svg" viewBox="0 0 256 256" fill="currentColor"><path d="M192,28H64A36,36,0,0,0,28,64V192a36,36,0,0,0,36,36H192a36,36,0,0,0,36-36V64A36,36,0,0,0,192,28Zm12,164a12,12,0,0,1-12,12H64a12,12,0,0,1-12-12V64A12,12,0,0,1,64,52H192a12,12,0,0,1,12,12ZM112,96A16,16,0,1,1,96,80,16,16,0,0,1,112,96Zm64,0a16,16,0,1,1-16-16A16,16,0,0,1,176,96Zm-64,64a16,16,0,1,1-16-16A16,16,0,0,1,112,160Zm64,0a16,16,0,1,1-16-16A16,16,0,0,1,176,160Z"/></svg>
